X: 4406
T: "INVITATION" WALTZ
C: Weber
R: Waltz
%R: waltz
B: James Kerr "Merry Melodies" v.4 p.45 #406
Z: 2016 John Chambers <jc:trillian.mit.edu>
M: 3/4
L: 1/8
K: D
|:!f!\
A,2zDF2 | A2d2z2 | f2(edcB) | (BA)FDA,2 |\
C2zEG2 | c2e2z2 | g2(ec) Ac | d2z2z2 H::!p!\
(a6 | A2)fed2 | (a6 | A2)fed2 |\
e2EAG2 | e2EAG2 | e2EAG2 |[1 e2EAG2 :|[2 F2z2z2 || [K:=c]
[K:G]\
|:!p!\
B2z2z2 | ^A2z2z2 | B2z2z2 | G2z2z2 |\
d2z2z2 | ^c2z2z2 | d2z2z2 | A2z2z2 |\
B2z2z2 | ^A2z2z2 | B6 | (e4d2) |\
(d4c2) | (B4A2) | (G4F2) | (E4D2) |\
B2z2z2 | ^A2z2z2 | B2z2z2 | G2z2z2 |
e2z2z2 | ^d2z2z2 | e2z2z2 | g6 |\
[1 f6 | (e4d2) | (^c4B2) | (A4G2) |\
   F6 | E6 | D6- | D2z2z2 :|\
[2 !f!b6 | (a4g2) |(f4e2) | (d4^c2) |\
   e6 | d6 | G6- | G2z2"_D.C."z2 |]

%%sep 1 1 500
%%sep 1 1 500

